X:5727
T:Gan ainm
R:Jig
S:
H:
N:
D:Eileen Ivers & John Whelan
Z:Adrian Scahill
M:6/8
L:1/8
K:A
BGE E3|B,EG B3|AFE D2F|A,DD F=GA|\
BGE E3|B,EG BAG|AFE D (3FGA|BGE E3:||\
efe eBA|GAB e3|d3 dAF|DFA def|\
efe eBA|GAB e3|dcB F=GA|B^GE E3:||
